assets/icons/target-filled.svg

<svg height="24" width="24" xmlns="http://www.w3.org/2000/svg"><path style="fill:gray;fill-opacity:1;stroke-linecap:square;stroke-linejoin:round" d="M11 2v1.035A8.5 8.5 0 0 0 3.035 11H2v1h1.035A8.5 8.5 0 0 0 11 19.965V21h1v-1.035A8.5 8.5 0 0 0 19.965 12H21v-1h-1.016A8.5 8.5 0 0 0 12 3.016V2h-1zm.5 7a2.5 2.5 0 0 1 2.5 2.5 2.5 2.5 0 0 1-2.5 2.5A2.5 2.5 0 0 1 9 11.5 2.5 2.5 0 0 1 11.5 9z"/></svg>

<?xml version="1.0" encoding="UTF-8" standalone="no"?>
<svg viewBox="0 0 24 24" height="24" width="24" version="1.1" id="svg4" sodipodi:docname="find-location-filled.svg" inkscape:version="1.1 (ce6663b3b7, 2021-05-25)"
   xmlns:inkscape="http://www.inkscape.org/namespaces/inkscape"
   xmlns:sodipodi="http://sodipodi.sourceforge.net/DTD/sodipodi-0.dtd"
   xmlns="http://www.w3.org/2000/svg"
   xmlns:svg="http://www.w3.org/2000/svg">
   <defs id="defs8" />
   <sodipodi:namedview id="namedview6" pagecolor="#ffffff" bordercolor="#666666" borderopacity="1.0" inkscape:pageshadow="2" inkscape:pageopacity="0.0" inkscape:pagecheckerboard="0" showgrid="true" inkscape:zoom="9.8994949" inkscape:cx="-5.4043161" inkscape:cy="8.2832509" inkscape:window-width="1920" inkscape:window-height="1043" inkscape:window-x="1920" inkscape:window-y="0" inkscape:window-maximized="1" inkscape:current-layer="svg4" inkscape:snap-page="true">
      <inkscape:grid type="xygrid" id="grid825" />
   </sodipodi:namedview>
   <path id="path80" style="fill:#808080;fill-opacity:1;fill-rule:evenodd;stroke-linecap:square;stroke-linejoin:round" d="M 11 2 L 11 3.0351562 A 8.5 8.5 0 0 0 3.0351562 11 L 2 11 L 2 12 L 3.0351562 12 A 8.5 8.5 0 0 0 11 19.964844 L 11 21 L 12 21 L 12 19.964844 A 8.5 8.5 0 0 0 19.964844 12 L 21 12 L 21 11 L 19.984375 11 A 8.5 8.5 0 0 0 12 3.015625 L 12 2 L 11 2 z M 11.5 9 A 2.5 2.5 0 0 1 14 11.5 A 2.5 2.5 0 0 1 11.5 14 A 2.5 2.5 0 0 1 9 11.5 A 2.5 2.5 0 0 1 11.5 9 z " />
</svg>
